Yaru++/mimetypes/48/application-mspowerpoint.svg

<svg height="48" viewBox="0 0 12.699375 12.699376" width="48" xmlns="http://www.w3.org/2000/svg" xmlns:xlink="http://www.w3.org/1999/xlink"><linearGradient id="a" gradientUnits="userSpaceOnUse" x1="6.350072" x2="6.350072" y1=".396856" y2="12.03795"><stop offset="0" stop-color="#fff"/><stop offset=".125" stop-color="#fff" stop-opacity=".098039"/><stop offset=".92500001" stop-color="#fff" stop-opacity=".098039"/><stop offset="1" stop-color="#fff" stop-opacity=".498039"/></linearGradient><linearGradient id="b" gradientTransform="matrix(0 -.03065201 .03080135 0 -3.299968 13.793737)" gradientUnits="userSpaceOnUse" x1="441.37933" x2="52.965569" y1="240.30261" y2="386.30783"><stop offset="0" stop-color="#d24625"/><stop offset="1" stop-color="#ec532f"/></linearGradient><path d="m4.1621984.39685674c-.5881134-.0089584-1.0513178.0135407-1.4323996.0775109-.3810844.0639689-.6929229.1839555-.9213477.4118407-.2284221.22788556-.3489841.53958356-.4123567.92082886-.0633725.3812456-.0757438.8453924-.07286 1.4349839v3.239953 3.2415032c-.00286.5886857.00955 1.0525967.07286 1.4334327.063373.381246.1839346.692944.4123567.920829.2284248.227885.5402633.347873.9213477.411841.3810845.06397.8442175.07751 1.4323996.07751h4.3757445c.5881822 0 1.0510744-.01352 1.4313678-.07751.3802933-.064.6911793-.18439.9187603-.412357.227583-.227967.347434-.539443.411325-.920313.06389-.380867.07751-.844073.07751-1.4334327v-3.2415032-3.1748438l-2.8389631-2.84361426z" opacity=".1"/><path d="m4.101678.26457204c-2.3993778 0-2.6575482.2452432-2.645788 2.63774866v3.3150837 3.3150839c-.011773 2.3925037.2464102 2.6377477 2.645788 2.6377477h4.4971584c2.3993776 0 2.6457876-.245215 2.6457876-2.6377477v-3.3150839l-.000182-3.2469994-2.7190927-2.70583296z" fill="url(#b)"/><g fill="#fff"><path d="m6.5174961 4.1008381-3.3422667.4955526-.0005291 5.0956536 3.3195294.4940027.3849816-.000089s-.00238-6.0851199.0000027-6.0851199zm-1.5745744 1.8861887c.2181752-.00463.4272704.026513.5973495.180342.3257998.3953445.2396478 1.1229383-.2433836 1.3595401-.1715923.087686-.3677501.07529-.55446.069243-.0007937.2955632-.00185.5911612-.00106.8867234-.1496683-.01285-.2998887-.02563-.4495614-.03772-.0068-.8073179-.00855-1.5779499.0005291-2.3852672.2128574-.026521.4323979-.068228.6505731-.07286zm-.025319.4381946c-.059536-.00159-.1203663.00365-.1762091.0062-.00238.2539875-.00347.5074077.012408.7606396.150427-.01814.3453016-.00344.4314775-.1591541.0718119-.1526946.0763546-.3473927-.009816-.4955526-.0628355-.0874027-.1586258-.1094734-.2578529-.1121323z" stroke-width=".35276"/><path d="m7.1437816 4.8945522v.7538c.083454-.017919.1728597-.047371.2645704-.063042v.6319717.2645703h1.0960037c-.024949.3265554-.1641844.7311499-.4536984.9027428-.2675944.1799078-.6075355.182373-.9068757.0893959.0007937.1481591-.0007937.4472458 0 .5954052h1.8519923v.2645702h-1.8519923v.529141h1.8519923v.26457h-1.8519923v.529141h2.3811329v-4.7622661h-1.8519922-.2645703zm.5291407.5409037c.4466873.028996.828158.3586902.9420158.781826h-.9420158z" stroke-width=".35276"/><path d="m1.5878047 6.2174038v3.2415035c-.011456 2.3393377.2397775 2.5790437 2.5743937 2.5790437h4.3757445c2.3346161 0 2.5743941-.23968 2.5743941-2.5790437v-3.2415035z" opacity=".1"/><path d="m6.3500707.39685674v11.64109426h2.1878722c2.3346161 0 2.5743941-.23968 2.5743941-2.5790437v-3.2415035-3.1748438l-2.6457037-2.64570326z" opacity=".1"/></g><path d="m4.1621984.13228644c-.5881821 0-1.0513178.013541-1.4323996.077511-.3810844.0639687-.6929229.1839553-.9213477.4118406-.2284221.2278855-.3489841.53958356-.4123567.92082886-.0633725.3812455-.0757438.8453924-.07286 1.4349839v3.239953 3.2415035c-.00286.5886847.00955 1.0525967.07286 1.4334327.063373.381246.1839346.692944.4123567.920829.2284247.227885.5402632.347873.9213476.411841.3810845.06397.8442175.07751 1.4323996.07751h4.3757445c.5881822 0 1.0510744-.01352 1.4313678-.07751.3802934-.064.6911794-.18439.9187604-.412357.227583-.227967.347434-.539443.411325-.920313.06389-.380868.07751-.844073.07751-1.4334327v-3.2415035-3.2843924l-2.8007248-2.80072496zm0 .2645703h4.3044349l2.6457037 2.64570326v3.1748438 3.2415035c0 2.3393637-.239778 2.5790437-2.5743941 2.5790437h-4.3757445c-2.3346162 0-2.5858495-.239706-2.5743937-2.5790437v-3.2415035-3.2415031c-.0114426-2.33933876.2397775-2.57904396 2.5743937-2.57904396z" opacity=".4"/><path d="m4.1621984.39685674c-2.3346162 0-2.5858363.2397052-2.5743937 2.57904396v3.2415031 3.2415035c-.011456 2.3393377.2397775 2.5790437 2.5743937 2.5790437h4.3757445c2.3346161 0 2.5743941-.23968 2.5743941-2.5790437v-3.2415035-3.1748438h-.264571v3.1748438 3.2415035c0 .5803217-.01624 1.0240707-.07028 1.3461027-.05402.322035-.13987.509124-.264054.633525-.124184.124387-.310701.2105-.6319714.26457-.321273.05406-.7643966.07028-1.3435225.07028h-4.3757397c-.5791259 0-1.0227997-.01619-1.3450729-.07028-.3222704-.0541-.5102953-.14009-.6350719-.26457-.1247741-.124489-.2105874-.311352-.2640519-.633006-.053467-.321654-.0684681-.765511-.0656266-1.3455887v-.000529-3.2420075-3.2420198-.0005292c-.00283-.5800778.01217-1.0239334.065627-1.3455882.053467-.3216548.1392778-.5085249.2640519-.63300516.124774-.1244804.31332-.2104736.6355905-.2645703.3222705-.0540719.7654284-.0702641 1.3445543-.0702641h4.3044349v-.2645703z" fill="url(#a)" opacity=".4"/><path d="m11.112337 3.3071303v-.2645703l-2.6457037-2.64570326h-.2645704v1.11359076.042668.022917c0 1.505929.201592 1.7381397 1.7109763 1.730759z" fill="#7f2a16" opacity=".6"/><path d="m11.112337 3.0422213-2.6457037-2.64536516v.98127606.042668.022917c0 1.505929.069402 1.6058848 1.5787867 1.598504z" fill="#f18369"/></svg>

<?xml version="1.0" encoding="UTF-8" standalone="no"?>
<svg
   xmlns:dc="http://purl.org/dc/elements/1.1/"
   xmlns:cc="http://creativecommons.org/ns#"
   xmlns:rdf="http://www.w3.org/1999/02/22-rdf-syntax-ns#"
   xmlns:svg="http://www.w3.org/2000/svg"
   xmlns="http://www.w3.org/2000/svg"
   xmlns:xlink="http://www.w3.org/1999/xlink"
   xmlns:sodipodi="http://sodipodi.sourceforge.net/DTD/sodipodi-0.dtd"
   xmlns:inkscape="http://www.inkscape.org/namespaces/inkscape"
   height="48"
   viewBox="0 0 12.699375 12.699376"
   width="48"
   version="1.1"
   id="svg32"
   sodipodi:docname="application-mspowerpoint.svg"
   inkscape:version="0.92.5 (2060ec1f9f, 2020-04-08)">
  <metadata
     id="metadata38">
    <rdf:RDF>
      <cc:Work
         rdf:about="">
        <dc:format>image/svg+xml</dc:format>
        <dc:type
           rdf:resource="http://purl.org/dc/dcmitype/StillImage" />
      </cc:Work>
    </rdf:RDF>
  </metadata>
  <defs
     id="defs36">
    <linearGradient
       gradientTransform="matrix(0.26457032,0,0,0.26457032,-84.662118,-16.006504)"
       inkscape:collect="always"
       xlink:href="#linearGradient927"
       id="linearGradient1004"
       x1="344"
       y1="62"
       x2="344"
       y2="106"
       gradientUnits="userSpaceOnUse" />
    <linearGradient
       inkscape:collect="always"
       id="linearGradient927">
      <stop
         style="stop-color:#ffffff;stop-opacity:1;"
         offset="0"
         id="stop923" />
      <stop
         id="stop933"
         offset="0.125"
         style="stop-color:#ffffff;stop-opacity:0.09803922" />
      <stop
         id="stop931"
         offset="0.92500001"
         style="stop-color:#ffffff;stop-opacity:0.09803922" />
      <stop
         style="stop-color:#ffffff;stop-opacity:0.49803922"
         offset="1"
         id="stop925" />
    </linearGradient>
    <linearGradient
       inkscape:collect="always"
       xlink:href="#linearGradient4338-3-3"
       id="linearGradient1024"
       gradientUnits="userSpaceOnUse"
       gradientTransform="matrix(0,-0.03065201,0.03080135,0,-3.2999678,13.793737)"
       x1="441.37933"
       y1="240.30261"
       x2="52.965569"
       y2="386.30783" />
    <linearGradient
       inkscape:collect="always"
       id="linearGradient4338-3-3">
      <stop
         style="stop-color:#d24625;stop-opacity:1"
         offset="0"
         id="stop4340-0-5" />
      <stop
         style="stop-color:#ec532f;stop-opacity:1"
         offset="1"
         id="stop4342-7-6" />
    </linearGradient>
  </defs>
  <sodipodi:namedview
     pagecolor="#ffffff"
     bordercolor="#666666"
     borderopacity="1"
     objecttolerance="10"
     gridtolerance="10"
     guidetolerance="10"
     inkscape:pageopacity="0"
     inkscape:pageshadow="2"
     inkscape:window-width="834"
     inkscape:window-height="480"
     id="namedview34"
     showgrid="false"
     inkscape:zoom="4.9166667"
     inkscape:cx="24"
     inkscape:cy="24"
     inkscape:window-x="0"
     inkscape:window-y="28"
     inkscape:window-maximized="0"
     inkscape:current-layer="svg32" />
  <linearGradient
     id="a"
     gradientUnits="userSpaceOnUse"
     x1="6.35044508"
     x2="6.35044508"
     y1=".13228552"
     y2="12.30252024">
    <stop
       offset="0"
       stop-color="#fff"
       id="stop2" />
    <stop
       offset=".125"
       stop-color="#fff"
       stop-opacity=".098039"
       id="stop4" />
    <stop
       offset=".92500001"
       stop-color="#fff"
       stop-opacity=".098039"
       id="stop6" />
    <stop
       offset="1"
       stop-opacity=".498039"
       id="stop8" />
  </linearGradient>
  <linearGradient
     id="b"
     gradientTransform="matrix(0 -.02997086 -.02997 0 15.739288 13.625372)"
     gradientUnits="userSpaceOnUse"
     x1="512"
     x2="-.000001"
     y1="397.99393"
     y2="125.99394">
    <stop
       offset="0"
       stop-color="#d24625"
       id="stop11" />
    <stop
       offset="1"
       stop-color="#ec532f"
       id="stop13" />
  </linearGradient>
  <path
     style="color:#000000;font-style:normal;font-variant:normal;font-weight:normal;font-stretch:normal;font-size:medium;line-height:normal;font-family:sans-serif;font-variant-ligatures:normal;font-variant-position:normal;font-variant-caps:normal;font-variant-numeric:normal;font-variant-alternates:normal;font-feature-settings:normal;text-indent:0;text-align:start;text-decoration:none;text-decoration-line:none;text-decoration-style:solid;text-decoration-color:#000000;letter-spacing:normal;word-spacing:normal;text-transform:none;writing-mode:lr-tb;direction:ltr;text-orientation:mixed;dominant-baseline:auto;baseline-shift:baseline;text-anchor:start;white-space:normal;shape-padding:0;clip-rule:nonzero;display:inline;overflow:visible;visibility:visible;opacity:0.1;isolation:auto;mix-blend-mode:normal;color-interpolation:sRGB;color-interpolation-filters:linearRGB;solid-color:#000000;solid-opacity:1;vector-effect:none;fill:#000000;fill-opacity:1;fill-rule:nonzero;stroke:none;stroke-width:0.52914065;stroke-linecap:butt;stroke-linejoin:miter;stroke-miterlimit:4;stroke-dasharray:none;stroke-dashoffset:0;stroke-opacity:1;marker:none;color-rendering:auto;image-rendering:auto;shape-rendering:auto;text-rendering:auto;enable-background:accumulate"
     d="M 4.1621984,0.39685674 C 3.574085,0.38789834 3.1108806,0.41039744 2.7297988,0.47436764 2.3487144,0.53833654 2.0368759,0.65832314 1.8084511,0.88620834 1.580029,1.1140939 1.459467,1.4257919 1.3960944,1.8070372 1.3327219,2.1882828 1.3203506,2.6524296 1.3232344,3.2420211 v 3.239953 3.2415032 c -0.00286,0.5886857 0.00955,1.0525967 0.07286,1.4334327 0.063373,0.381246 0.1839346,0.692944 0.4123567,0.920829 0.2284248,0.227885 0.5402633,0.347873 0.9213477,0.411841 0.3810845,0.06397 0.8442175,0.07751 1.4323996,0.07751 h 4.3757445 c 0.5881822,0 1.0510744,-0.01352 1.4313678,-0.07751 0.3802933,-0.064 0.6911793,-0.18439 0.9187603,-0.412357 0.227583,-0.227967 0.347434,-0.539443 0.411325,-0.920313 0.06389,-0.380867 0.07751,-0.844073 0.07751,-1.4334327 V 6.4819741 3.3071303 L 8.5379429,0.46351604 Z"
     id="path1020"
     inkscape:connector-curvature="0"
     sodipodi:nodetypes="sccsccccccsscccscccs" />
  <path
     style="color:#000000;display:inline;overflow:visible;visibility:visible;fill:url(#linearGradient1024);fill-opacity:1;fill-rule:nonzero;stroke:none;stroke-width:0.26457033;marker:none;enable-background:accumulate"
     d="m 4.101678,0.26457204 c -2.3993778,0 -2.6575482,0.2452432 -2.645788,2.63774866 V 6.2174044 9.5324883 C 1.444117,11.924992 1.7023002,12.170236 4.101678,12.170236 h 4.4971584 c 2.3993776,0 2.6457876,-0.245215 2.6457876,-2.6377477 V 6.2174044 L 11.244442,2.970405 8.5253493,0.26457204 Z"
     id="path964"
     inkscape:connector-curvature="0"
     sodipodi:nodetypes="scccssscccs" />
  <path
     inkscape:connector-curvature="0"
     id="path1309-3"
     d="m 6.5174961,4.1008381 -3.3422667,0.4955526 -5.291e-4,5.0956536 3.3195294,0.4940027 0.3849816,-8.9e-5 c 0,0 -0.00238,-6.0851199 2.7e-6,-6.0851199 z M 4.9429217,5.9870268 c 0.2181752,-0.00463 0.4272704,0.026513 0.5973495,0.180342 0.3257998,0.3953445 0.2396478,1.1229383 -0.2433836,1.3595401 -0.1715923,0.087686 -0.3677501,0.07529 -0.55446,0.069243 -7.937e-4,0.2955632 -0.00185,0.5911612 -0.00106,0.8867234 -0.1496683,-0.01285 -0.2998887,-0.02563 -0.4495614,-0.03772 -0.0068,-0.8073179 -0.00855,-1.5779499 5.291e-4,-2.3852672 0.2128574,-0.026521 0.4323979,-0.068228 0.6505731,-0.07286 z m -0.025319,0.4381946 c -0.059536,-0.00159 -0.1203663,0.00365 -0.1762091,0.0062 -0.00238,0.2539875 -0.00347,0.5074077 0.012408,0.7606396 C 4.9042286,7.173921 5.0991032,7.188621 5.1852791,7.0329069 5.257091,6.8802123 5.2616337,6.6855142 5.1754631,6.5373543 5.1126276,6.4499516 5.0168373,6.4278809 4.9176102,6.425222 Z"
     style="display:inline;fill:#ffffff;stroke-width:0.3527604;enable-background:new"
     sodipodi:nodetypes="ccccccccccccccccccccccc" />
  <path
     style="display:inline;fill:#ffffff;fill-opacity:1;stroke-width:0.3527604;enable-background:new"
     d="m 7.1437816,4.8945522 v 0.7538 C 7.2272356,5.6304332 7.3166413,5.6009812 7.408352,5.5853102 V 6.2172819 6.4818522 H 8.5043557 C 8.4794067,6.8084076 8.3401713,7.2130021 8.0506573,7.384595 7.7830629,7.5645028 7.4431218,7.566968 7.1437816,7.4739909 c 7.937e-4,0.1481591 -7.937e-4,0.4472458 0,0.5954052 H 8.9957739 V 8.3339663 H 7.1437816 v 0.529141 h 1.8519923 v 0.26457 H 7.1437816 v 0.529141 H 9.5249145 V 4.8945522 H 7.6729223 7.408352 Z m 0.5291407,0.5409037 c 0.4466873,0.028996 0.828158,0.3586902 0.9420158,0.781826 H 7.6729223 Z"
     id="path965"
     inkscape:connector-curvature="0"
     sodipodi:nodetypes="cccccccccccccccccccccccccc" />
  <path
     style="color:#000000;display:inline;overflow:visible;visibility:visible;opacity:0.1;fill:#ffffff;fill-opacity:1;fill-rule:nonzero;stroke:none;stroke-width:0.26457033;marker:none;enable-background:accumulate"
     d="m 1.5878047,6.2174038 v 3.2415035 c -0.011456,2.3393377 0.2397775,2.5790437 2.5743937,2.5790437 h 4.3757445 c 2.3346161,0 2.5743941,-0.23968 2.5743941,-2.5790437 V 6.2174038 Z"
     id="path1006"
     inkscape:connector-curvature="0" />
  <path
     style="color:#000000;display:inline;overflow:visible;visibility:visible;opacity:0.1;fill:#ffffff;fill-opacity:1;fill-rule:nonzero;stroke:none;stroke-width:0.26457033;marker:none;enable-background:accumulate"
     d="M 6.3500707,0.39685674 V 12.037951 h 2.1878722 c 2.3346161,0 2.5743941,-0.23968 2.5743941,-2.5790437 V 6.2174038 3.04256 L 8.4666333,0.39685674 Z"
     id="path1013"
     inkscape:connector-curvature="0"
     sodipodi:nodetypes="ccsscccc" />
  <path
     style="color:#000000;font-style:normal;font-variant:normal;font-weight:normal;font-stretch:normal;font-size:medium;line-height:normal;font-family:sans-serif;font-variant-ligatures:normal;font-variant-position:normal;font-variant-caps:normal;font-variant-numeric:normal;font-variant-alternates:normal;font-feature-settings:normal;text-indent:0;text-align:start;text-decoration:none;text-decoration-line:none;text-decoration-style:solid;text-decoration-color:#000000;letter-spacing:normal;word-spacing:normal;text-transform:none;writing-mode:lr-tb;direction:ltr;text-orientation:mixed;dominant-baseline:auto;baseline-shift:baseline;text-anchor:start;white-space:normal;shape-padding:0;clip-rule:nonzero;display:inline;overflow:visible;visibility:visible;opacity:0.4;isolation:auto;mix-blend-mode:normal;color-interpolation:sRGB;color-interpolation-filters:linearRGB;solid-color:#000000;solid-opacity:1;vector-effect:none;fill:#000000;fill-opacity:1;fill-rule:nonzero;stroke:none;stroke-width:0.52914065;stroke-linecap:butt;stroke-linejoin:miter;stroke-miterlimit:4;stroke-dasharray:none;stroke-dashoffset:0;stroke-opacity:1;marker:none;color-rendering:auto;image-rendering:auto;shape-rendering:auto;text-rendering:auto;enable-background:accumulate"
     d="m 4.1621984,0.13228644 c -0.5881821,0 -1.0513178,0.013541 -1.4323996,0.077511 C 2.3487144,0.27376614 2.0368759,0.39375274 1.8084511,0.62163804 1.580029,0.84952354 1.459467,1.1612216 1.3960944,1.5424669 1.3327219,1.9237124 1.3203506,2.3878593 1.3232344,2.9774508 v 3.239953 3.2415035 c -0.00286,0.5886847 0.00955,1.0525967 0.07286,1.4334327 0.063373,0.381246 0.1839346,0.692944 0.4123567,0.920829 0.2284247,0.227885 0.5402632,0.347873 0.9213476,0.411841 0.3810845,0.06397 0.8442175,0.07751 1.4323996,0.07751 h 4.3757445 c 0.5881822,0 1.0510744,-0.01352 1.4313678,-0.07751 0.3802934,-0.064 0.6911794,-0.18439 0.9187604,-0.412357 0.227583,-0.227967 0.347434,-0.539443 0.411325,-0.920313 0.06389,-0.380868 0.07751,-0.844073 0.07751,-1.4334327 V 6.2174038 2.9330114 L 8.5761812,0.13228644 Z m 0,0.2645703 H 8.4666333 L 11.112337,3.04256 v 3.1748438 3.2415035 c 0,2.3393637 -0.239778,2.5790437 -2.5743941,2.5790437 H 4.1621984 c -2.3346162,0 -2.5858495,-0.239706 -2.5743937,-2.5790437 V 6.2174038 2.9759007 C 1.5763621,0.63656194 1.8275822,0.39685674 4.1621984,0.39685674 Z"
     id="path958"
     inkscape:connector-curvature="0"
     sodipodi:nodetypes="sccsccccccsscccscccsscccssscccs" />
  <path
     style="color:#000000;font-style:normal;font-variant:normal;font-weight:normal;font-stretch:normal;font-size:medium;line-height:normal;font-family:sans-serif;font-variant-ligatures:normal;font-variant-position:normal;font-variant-caps:normal;font-variant-numeric:normal;font-variant-alternates:normal;font-feature-settings:normal;text-indent:0;text-align:start;text-decoration:none;text-decoration-line:none;text-decoration-style:solid;text-decoration-color:#000000;letter-spacing:normal;word-spacing:normal;text-transform:none;writing-mode:lr-tb;direction:ltr;text-orientation:mixed;dominant-baseline:auto;baseline-shift:baseline;text-anchor:start;white-space:normal;shape-padding:0;clip-rule:nonzero;display:inline;overflow:visible;visibility:visible;opacity:0.4;isolation:auto;mix-blend-mode:normal;color-interpolation:sRGB;color-interpolation-filters:linearRGB;solid-color:#000000;solid-opacity:1;vector-effect:none;fill:url(#linearGradient1004);fill-opacity:1;fill-rule:nonzero;stroke:none;stroke-width:0.52914065;stroke-linecap:butt;stroke-linejoin:miter;stroke-miterlimit:4;stroke-dasharray:none;stroke-dashoffset:0;stroke-opacity:1;marker:none;color-rendering:auto;image-rendering:auto;shape-rendering:auto;text-rendering:auto;enable-background:accumulate"
     clip-path="none"
     d="m 4.1621984,0.39685674 c -2.3346162,0 -2.5858363,0.2397052 -2.5743937,2.57904396 v 3.2415031 3.2415035 c -0.011456,2.3393377 0.2397775,2.5790437 2.5743937,2.5790437 h 4.3757445 c 2.3346161,0 2.5743941,-0.23968 2.5743941,-2.5790437 V 6.2174038 3.04256 h -0.264571 v 3.1748438 3.2415035 c 0,0.5803217 -0.01624,1.0240707 -0.07028,1.3461027 -0.05402,0.322035 -0.13987,0.509124 -0.264054,0.633525 -0.124184,0.124387 -0.310701,0.2105 -0.6319714,0.26457 -0.321273,0.05406 -0.7643966,0.07028 -1.3435225,0.07028 H 4.1621984 c -0.5791259,0 -1.0227997,-0.01619 -1.3450729,-0.07028 -0.3222704,-0.0541 -0.5102953,-0.14009 -0.6350719,-0.26457 C 2.0572795,11.314046 1.9714662,11.127183 1.9180017,10.805529 1.8645347,10.483875 1.8495336,10.040018 1.8523751,9.4599403 V 9.4594113 6.2174038 2.975384 2.9748548 c -0.00283,-0.5800778 0.01217,-1.0239334 0.065627,-1.3455882 0.053467,-0.3216548 0.1392778,-0.5085249 0.2640519,-0.63300516 0.124774,-0.1244804 0.31332,-0.2104736 0.6355905,-0.2645703 0.3222705,-0.0540719 0.7654284,-0.0702641 1.3445543,-0.0702641 h 4.3044349 v -0.2645703 z"
     id="path990"
     inkscape:connector-curvature="0" />
  <path
     inkscape:connector-curvature="0"
     style="color:#000000;display:inline;overflow:visible;visibility:visible;opacity:0.6;fill:#7f2a16;fill-opacity:1;fill-rule:nonzero;stroke:none;stroke-width:0.06614864;marker:none;enable-background:accumulate"
     d="M 11.112337,3.3071303 V 3.04256 L 8.4666333,0.39685674 H 8.2020629 v 1.11359076 0.042668 0.022917 c 0,1.505929 0.201592,1.7381397 1.7109763,1.730759 z"
     id="rect4158-0-3-62-2"
     sodipodi:nodetypes="ccccccscc" />
  <path
     inkscape:connector-curvature="0"
     style="color:#000000;display:inline;overflow:visible;visibility:visible;fill:#f18369;fill-opacity:1;fill-rule:nonzero;stroke:none;stroke-width:0.06614864;marker:none;enable-background:accumulate"
     d="M 11.112337,3.0422213 8.4666333,0.39685614 v 0.98127606 0.042668 0.022917 c 0,1.505929 0.069402,1.6058848 1.5787867,1.598504 z"
     id="rect4158-0-3-62"
     sodipodi:nodetypes="ccccscc" />
</svg>
